X: 40244
T: Tír Rafartaigh
R: slip jig
M: 9/8
K: Dmajor
D2F FED EFA|d2f fed efa|g2f ede fdA|B2B BAF AFE|
D2F FED EFA|d2f fed efa|g2f ede fdA|B2B BAF EFG|
AB/c/d def ede|f2a abf afd|g2f ede fdA|B2B BAF EFG|
AB/c/d def ede|f2a abf afd|g2f ede fdA|B2B BAF AFE|

